static/images/stroke-devrev.svg

<svg width="89" height="206" viewBox="0 0 89 206" fill="none" xmlns="http://www.w3.org/2000/svg">
<path d="M56.6642 73.1209C55.9485 72.8524 54.4073 73.4681 53.9608 74.7939C53.6086 75.8407 52.1381 76.5073 52.193 77.7468C51.146 79.5113 49.8119 81.1801 49.2899 83.1191C49.0966 83.238 49.021 83.3915 49.0647 83.5797C46.4396 87.5435 43.5801 91.4153 41.7203 95.6785C41.5661 96.5527 40.2547 97.278 40.9618 98.2625C40.8827 98.7027 39.4614 98.6383 40.2815 99.4162C36.7044 103.709 34.9847 108.643 32.5641 113.335C30.8991 115.139 29.6389 117.06 29.6325 119.344C27.9716 120.858 26.989 122.563 27.1202 124.582C26.6366 124.883 25.9012 124.872 25.7026 125.528C25.1082 127.411 23.1565 128.913 23.104 130.95C22.5137 132.169 20.5547 133.148 21.7956 134.687C21.4803 135.372 19.9626 136.277 21.0089 136.654C22.2917 137.117 22.1383 135.566 22.5957 134.879C24.0418 133.787 23.6053 132.415 23.7845 131.134C24.2364 130.125 26.6874 130.242 25.8791 128.522C28.2439 126.512 29.0672 123.931 30.0368 121.404C30.3165 120.825 30.5967 120.245 30.8768 119.666C32.1661 118.256 32.7113 116.607 33.3467 114.986C36.0751 114.214 35.4177 111.933 36.317 110.385C38.6578 106.354 41.8272 102.616 43.2686 98.2628C45.3205 97.4818 43.7244 96.5127 43.7888 95.6288C44.6867 95.3813 45.2737 94.912 45.3156 94.0516C46.6136 93.0959 47.5476 92.0241 47.1595 90.5302C47.4096 89.2314 49.6522 88.5346 48.9739 86.9545C50.1302 86.3573 50.4697 85.555 50.036 84.5577C50.4118 84.0139 50.7873 83.4709 51.1627 82.9278C52.9577 82.4577 52.3984 80.9931 53.027 80.0305C53.2733 79.6573 53.5202 79.2844 53.7665 78.9113C55.2429 78.0284 55.4446 76.5704 56.1134 75.3413C56.5057 74.6223 58.0963 73.6581 56.6642 73.1209Z" fill="#0BA6E2"/>
<path d="M47.5959 66.3804C47.1549 65.6655 47.4344 64.3215 46.2069 64.3379C44.7103 64.3584 45.2338 65.679 44.8753 66.435C44.4586 67.3123 44.0341 68.1872 43.6121 69.0637C42.9315 70.2462 42.251 71.4287 41.5711 72.6114C41.5788 73.0126 41.5864 73.4138 41.5941 73.815C39.2776 76.2175 38.7892 79.277 36.9597 81.8546C34.8942 82.5452 36.9629 84.2329 35.5562 85.082C33.4592 87.6308 31.5775 90.233 31.8771 93.3776C31.8789 93.3773 31.8807 93.3771 31.8825 93.3769C31.8911 93.378 31.9455 93.3966 31.9455 93.3966C29.1511 94.2769 29.785 96.9675 28.0753 98.4217C27.5672 100.012 24.9271 101.078 25.9805 103.035C27.6007 102.28 27.9807 100.235 30.1326 100.017C30.5773 99.9728 31.0681 99.4537 30.6493 99.1094C30.3376 98.8535 29.6804 98.9146 29.1769 98.8346C29.7879 97.3453 32.523 96.9591 32.1324 94.9497C33.1808 94.6907 33.2809 93.9176 33.5015 93.2097C33.4145 91.9459 36.4815 91.2234 34.7362 89.6753C35.7901 89.1365 36.8484 88.5991 36.4577 87.3405C36.6575 86.9523 36.8565 86.5639 37.0562 86.1758C38.092 85.1288 37.7673 83.2628 39.8823 82.8647C39.7413 82.5304 39.6003 82.1961 39.4585 81.8615C40.0799 81.5318 41.0244 81.4061 40.685 80.4722C41.3857 78.6337 43.1292 76.988 42.7039 74.9424C42.818 74.7431 42.9321 74.5439 43.0455 74.3444C43.5345 73.3568 44.0242 72.3695 44.5132 71.382C45.5313 70.5716 45.6148 69.4494 46.1056 68.4631C47.2583 68.0898 48.4928 67.8336 47.5959 66.3804Z" fill="#0BA6E2"/>
<path d="M100.949 54.1543C101.475 53.6819 102.009 53.0765 101.444 52.6015C100.759 52.027 100.177 52.8982 99.7497 53.2323C98.8836 53.9084 99.9905 53.8374 100.243 54.096C100.079 54.4881 99.9138 54.8794 99.7494 55.2715C99.2059 55.0741 98.6235 54.5378 98.0442 55.074C97.528 55.5517 98.4419 55.7876 98.5254 56.2128C98.5521 57.7361 95.7959 58.0053 96.1427 59.6728C96.0815 61.3771 94.2413 62.8072 94.5245 64.5651C93.3422 65.812 92.1602 67.0598 90.9778 68.3068C90.7635 69.3516 90.5493 70.3965 90.2312 71.9458C91.4545 70.8941 91.9354 70.1788 92.0378 69.298C93.4479 67.927 94.7493 66.5166 94.7783 64.6409C95.5782 63.5842 96.6891 62.6516 96.8448 61.3394C99.1225 59.2645 100.022 56.7048 100.949 54.1543Z" fill="#0BA6E2"/>
<path d="M68.3619 112.031C68.9952 111.473 69.2009 110.837 69.0782 110.138C69.5045 109.334 70.7599 108.613 69.8795 107.675C69.5412 107.314 69.0072 107.678 68.5856 107.919C67.231 108.692 68.1657 109.343 68.4474 110.03C67.6719 110.691 64.4435 109.816 66.4545 112.222C64.3866 113.448 65.9735 115.688 64.1106 116.972C63.2365 118.101 62.3448 119.229 63.5753 120.613C63.7148 119.112 65.0613 118.111 65.6184 116.809C66.2709 115.126 68.2889 113.912 68.3619 112.031Z" fill="#0BA6E2"/>
<path d="M61.8054 122.295C59.581 122.031 59.8744 124.785 58.8228 126.146C58.1224 127.012 57.7204 127.881 58.3362 128.951C59.6398 128.344 59.8838 127.431 60.1901 126.551C60.6967 125.03 62.9094 122.426 61.8054 122.295Z" fill="#0BA6E2"/>
<path d="M21.1134 136.99C18.7315 138.505 18.9681 140.602 17.5625 141.936C17.0377 142.951 16.0775 143.972 17.3484 145.087C18.0851 144.176 18.7916 143.352 18.4246 142.265C19.8225 140.833 20.9267 139.322 21.1134 136.99Z" fill="#0BA6E2"/>
<path d="M1.01052 150.751C2.20072 148.855 2.34661 148.293 2.16585 147.148C1.62126 148.43 0.717166 149.491 1.01052 150.751Z" fill="#0BA6E2"/>
<path d="M23.9274 107.34C23.8245 107.202 22.648 107.48 22.4574 108.089C22.2546 108.74 22.0722 109.541 22.7676 109.919C22.9848 110.036 23.8102 109.444 24.4626 109.125C24.293 108.447 24.2731 107.8 23.9274 107.34Z" fill="#0BA6E2"/>
<path d="M54.7176 131.954C54.8063 133.043 55.409 133.504 56.2608 133.666C56.367 133.686 57.1904 132.681 57.0661 132.371C56.7366 131.548 55.6489 132.009 54.7176 131.954Z" fill="#0BA6E2"/>
<path d="M14.8983 120.479C15.5361 122.298 13.5976 123.08 14.5894 124.494C15.3802 123.282 16.5246 122.411 14.8983 120.479Z" fill="#0BA6E2"/>
<path d="M71.1518 104.783C73.3552 104.488 73.4926 103.286 74.0384 102.365C73.5917 102.188 73.1454 102.011 72.6991 101.835C72.2209 102.746 71.7427 103.657 71.1518 104.783Z" fill="#0BA6E2"/>
<path d="M77.2967 93.8942C77.2979 93.8852 77.299 93.8762 77.301 93.8675C77.3002 93.8657 77.2998 93.8648 77.3001 93.8626C77.2701 93.8804 77.244 93.8994 77.2133 93.917C77.2409 93.9086 77.2686 93.9018 77.2967 93.8942Z" fill="#0BA6E2"/>
<path d="M75.9974 96.8388C73.6661 97.0479 75.6522 98.5245 74.8027 99.169C74.0581 100.089 73.3135 101.01 72.5692 101.929C73.0022 102.104 73.4349 102.279 73.8686 102.453C74.8296 100.846 76.4818 99.4765 76.6738 97.6021C77.2753 96.5839 77.9669 95.5884 78.4522 94.5404C78.9094 93.552 78.1772 93.6553 77.4451 93.864C77.2747 94.9401 77.1766 96.0353 75.9974 96.8388Z" fill="#0BA6E2"/>
<path d="M19.8413 114.163C19.2203 113.879 18.6572 114.062 18.2807 114.66C18.0711 115.129 18.1803 115.567 18.7467 115.606C19.3674 115.649 20.0567 115.419 20.2833 114.817C20.3538 114.63 20.0827 114.274 19.8413 114.163Z" fill="#0BA6E2"/>
<path d="M86.3132 78.8837C83.9068 79.1984 85.1436 80.8896 84.5038 81.8716C81.5878 82.7947 83.1785 85.482 81.4138 86.8552C80.0531 87.4631 80.5323 88.5795 80.158 89.4607C78.423 90.649 76.7457 91.8622 77.2043 93.9713C79.2433 92.7097 80.6852 91.0935 81.3811 89.0342C83.3292 87.1171 83.9812 84.7515 85.0618 82.5344C85.7328 81.3991 86.4038 80.2638 87.0748 79.1286C87.6078 78.082 88.1412 77.0348 88.6742 75.9882C87.3346 76.7172 86.3514 77.5739 86.3132 78.8837Z" fill="#0BA6E2"/>
<path d="M54.9062 135.199C53.8738 135.35 53.1703 135.665 53.1169 136.56C52.2078 137.396 50.4821 138.42 51.7907 139.308C52.6961 139.922 53.3605 138.305 54.0272 137.588C55.3626 136.943 54.17 135.962 54.9062 135.199Z" fill="#0BA6E2"/>
<path d="M49.6783 142.912C47.4082 143.629 47.8048 145.555 46.9135 146.898C46.114 148.377 44.588 149.791 45.8095 151.986C46.6608 150.315 47.282 149.096 47.9032 147.876C48.6108 146.492 49.3182 145.108 50.0266 143.724C50.5457 142.625 51.6248 141.636 51.4828 140.299C49.8659 140.846 50.2567 142.079 49.6783 142.912Z" fill="#0BA6E2"/>
<path d="M8.5687 135.412C8.13873 135.112 7.4876 135.346 7.29989 135.717C7.12522 136.063 7.35834 136.517 7.41201 136.923C7.82374 136.749 8.23662 136.574 8.71812 136.37C9.38142 135.962 8.8675 135.621 8.5687 135.412Z" fill="#0BA6E2"/>
<path d="M84.761 26.2287C84.0511 25.8665 82.9302 26.2864 82.786 27.4186C81.4203 28.5392 80.5717 29.8952 80.038 31.3949C78.959 32.3866 77.7124 33.2939 77.5312 34.7399C77.3379 34.852 77.2164 35.003 77.1659 35.1943C75.7233 35.9761 75.3032 37.0682 75.5444 38.3607C75.3838 38.5493 75.3758 38.7291 75.519 38.898C74.9613 39.4214 74.403 39.9446 73.8454 40.4681C72.5408 41.9439 71.4049 43.4741 71.2565 45.3214C70.9356 45.9341 69.32 45.5826 69.7804 46.7777C69.2482 48.4236 66.9906 49.585 67.4849 51.5187C66.326 53.2173 64.3078 54.5809 64.284 56.7221C63.0166 57.6506 62.2801 58.7677 62.3081 60.1573C61.5491 60.8268 60.5133 61.3496 60.5353 62.4345C60.4107 62.5982 60.3507 62.7723 60.3522 62.9579C59.8261 63.5765 59.4612 64.2139 59.8094 64.9299C58.3408 66.3254 57.0536 67.7784 57.2948 69.7122C56.6837 70.6461 55.5544 71.468 55.9077 72.8776C57.6119 72.2098 58.9764 71.6459 58.9597 69.9797C59.562 68.3875 61.7023 67.2343 61.233 65.3368C61.7444 64.8094 62.2554 64.2826 62.7676 63.7554C62.953 63.3572 63.1384 62.9589 63.3245 62.5609C63.5665 61.7198 64.8185 61.1973 64.5663 60.2004C65.1071 59.423 65.4777 58.6303 65.2267 57.7818C68.9317 57.0557 67.8654 53.8896 69.5004 52.1053C69.766 51.5065 70.0323 50.9079 70.2982 50.3084C71.1141 49.7417 70.9979 49.1703 70.5354 48.5976C73.0687 48.236 72.3428 46.2784 73.1207 45.0568C74.6288 44.7871 74.2671 43.5419 74.8568 42.7928C75.5755 41.8715 76.295 40.9503 77.0145 40.0292C77.3574 39.2433 77.7011 38.4577 78.0448 37.6721C78.3825 37.0622 78.7202 36.4524 79.0579 35.8425C79.2485 35.3996 80.6597 35.5539 79.9229 34.6576C80.686 34.0243 81.416 33.381 81.0476 32.4146C82.8659 31.2187 83.1774 29.3762 84.0992 27.7955C84.1845 27.2124 85.8078 26.7633 84.761 26.2287Z" fill="#0BA6E2"/>
<path d="M9.18784 133.352C9.80773 133.476 9.88618 132.955 10.1759 132.533C10.1393 132.365 10.088 132.128 10.0359 131.891C9.66818 132.14 9.22317 132.35 8.96468 132.657C8.84606 132.8 9.01781 133.317 9.18784 133.352Z" fill="#0BA6E2"/>
<path d="M13.492 125.045C13.0992 125.479 12.7544 125.709 12.7092 125.949C12.6621 126.201 12.8105 126.561 13.0377 126.698C13.3543 126.889 13.8086 126.689 13.8307 126.343C13.8557 125.969 13.6521 125.607 13.492 125.045Z" fill="#0BA6E2"/>
<path d="M99.1841 77.4692C100.779 76.7521 100.807 75.5848 100.704 74.3796C100.732 74.1939 100.736 74.0099 100.714 73.8281C101.587 72.6714 102.651 71.5265 101.824 70.1671C101.722 69.9999 101.076 69.895 100.949 70.003C99.6326 71.1132 99.4152 72.3603 100.042 73.665C99.4767 74.1948 98.4014 74.5906 99.2017 75.4801C98.5818 75.9298 97.2196 75.939 97.8209 77.1132C97.7694 77.3132 97.7179 77.5132 97.6664 77.7132C96.9822 79.8519 94.4739 81.1968 93.894 83.3805C93.6272 83.9824 93.3615 84.5839 93.0947 85.1858C92.8301 85.5669 92.5649 85.9478 92.3003 86.3289C91.0306 87.8557 90.3757 89.4958 90.4946 91.2777C89.7843 92.6319 88.0241 93.6512 88.1954 95.6659C90.4809 94.4476 90.2409 92.1423 92.0077 91.0362C91.4489 89.7207 93.7104 89.3039 93.5524 88.1156C94.8858 87.1517 95.9847 86.1077 95.5486 84.537C95.6937 84.136 95.8391 83.7343 95.9834 83.3331C96.7314 81.9766 97.4787 80.6199 98.2256 79.2639C98.5461 78.666 98.8651 78.0676 99.1841 77.4692Z" fill="#0BA6E2"/>
</svg>

<svg xmlns="http://www.w3.org/2000/svg" width="89" height="206" fill="none" viewBox="0 0 89 206"><path fill="#0ba6e2" d="M56.7 73.1c-.8-.2-2.3.4-2.7 1.7-.4 1-1.9 1.7-1.8 3-1 1.7-2.4 3.4-3 5.3q-.2.2-.1.5c-2.7 4-5.5 7.8-7.4 12-.1 1-1.4 1.7-.7 2.7-.1.4-1.5.3-.7 1.1-3.6 4.3-5.3 9.2-7.7 14-1.7 1.7-3 3.7-3 6q-2.5 2.2-2.5 5.2c-.5.3-1.2.3-1.4 1-.6 1.8-2.5 3.3-2.6 5.3-.6 1.3-2.5 2.2-1.3 3.8-.3.7-1.8 1.6-.8 2 1.3.4 1.1-1.1 1.6-1.8 1.4-1.1 1-2.5 1.2-3.8.4-1 2.9-.9 2-2.6 2.4-2 3.3-4.6 4.2-7.1l.9-1.7c1.3-1.4 1.8-3 2.4-4.7 2.8-.8 2.1-3 3-4.6 2.4-4 5.5-7.8 7-12.1 2-.8.4-1.8.5-2.7q1.4-.3 1.5-1.5c1.3-1 2.2-2 1.9-3.6.2-1.3 2.5-2 1.8-3.5q1.7-.9 1-2.4l1.2-1.7c1.8-.4 1.2-2 1.8-2.9l.8-1c1.4-1 1.6-2.4 2.3-3.7.4-.7 2-1.6.6-2.2m-9.1-6.7c-.4-.7-.2-2-1.4-2-1.5 0-1 1.3-1.3 2l-1.3 2.7-2 3.5v1.2c-2.3 2.4-2.8 5.5-4.6 8-2.1.7 0 2.4-1.4 3.3-2.1 2.5-4 5.1-3.7 8.3-2.7.9-2.1 3.6-3.8 5-.5 1.6-3.2 2.7-2.1 4.6 1.6-.7 2-2.8 4.1-3 .5 0 1-.5.5-.9l-1.4-.3c.6-1.5 3.3-1.8 3-3.9 1-.2 1-1 1.3-1.7 0-1.3 3-2 1.2-3.5 1-.6 2.1-1.1 1.8-2.4l.6-1.1c1-1 .7-3 2.8-3.3l-.4-1c.6-.4 1.5-.5 1.2-1.4.7-1.9 2.4-3.5 2-5.6l.3-.6 1.5-3c1-.7 1.1-1.9 1.6-2.8 1.2-.4 2.4-.7 1.5-2.1M101 54.2c.5-.5 1-1.1.4-1.6s-1.2.3-1.7.6c-.8.7.3.6.5.9l-.5 1.2c-.5-.2-1-.8-1.7-.2-.5.5.4.7.5 1.1 0 1.5-2.7 1.8-2.4 3.5 0 1.7-1.9 3.1-1.6 4.9L91 68.3l-.8 3.6q1.8-1.4 1.8-2.6c1.4-1.4 2.7-2.8 2.8-4.7.8-1 1.9-2 2-3.3 2.3-2 3.2-4.6 4.1-7.1M68.4 112q.9-.8.7-1.9c.4-.8 1.7-1.5.8-2.4-.4-.4-.9 0-1.3.2-1.4.8-.4 1.4-.2 2.1-.7.7-4-.2-2 2.2-2 1.2-.4 3.5-2.3 4.8-.9 1.1-1.8 2.2-.5 3.6.1-1.5 1.5-2.5 2-3.8.7-1.7 2.7-2.9 2.8-4.8m-6.6 10.3c-2.2-.3-2 2.5-3 3.8q-1.1 1.4-.5 2.9c1.3-.7 1.6-1.6 1.9-2.4.5-1.6 2.7-4.2 1.6-4.3M21.1 137c-2.4 1.5-2.1 3.6-3.5 5-.6 1-1.5 2-.3 3 .8-.8 1.5-1.6 1.1-2.7 1.4-1.5 2.5-3 2.7-5.3M1 150.8c1.2-2 1.3-2.5 1.2-3.7-.6 1.3-1.5 2.4-1.2 3.7m23-43.5c-.2-.1-1.4.2-1.5.8s-.4 1.4.3 1.8c.2.1 1-.5 1.7-.8q-.1-1-.6-1.8M54.7 132q.2 1.4 1.6 1.7s.9-1 .8-1.3c-.4-.9-1.5-.4-2.4-.4m-39.8-11.5c.6 1.8-1.3 2.6-.3 4 .8-1.2 2-2 .3-4m56.3-15.7c2.2-.3 2.3-1.5 2.8-2.4l-1.3-.6zm6.1-10.9"/><path fill="#0ba6e2" d="M76 96.8c-2.3.2-.3 1.7-1.2 2.4l-2.2 2.7 1.3.6c1-1.7 2.6-3 2.8-4.9l1.8-3c.4-1-.3-1-1-.7-.2 1-.3 2.1-1.5 3m-56.2 17.3q-.9-.4-1.5.5-.3.7.4 1 1.2 0 1.6-.9 0-.4-.5-.6m66.5-35.3c-2.4.3-1.2 2-1.8 3-3 .9-1.3 3.6-3 5-1.4.6-1 1.7-1.3 2.6-1.8 1.1-3.5 2.4-3 4.5q3-2 4.2-5c2-1.9 2.6-4.2 3.7-6.5l2-3.4 1.6-3.1q-2.2 1-2.4 2.9M55 135.2q-1.7.2-1.9 1.4c-.9.8-2.6 1.8-1.3 2.7.9.6 1.6-1 2.2-1.7 1.4-.7.2-1.6 1-2.4m-5.3 7.8c-2.3.6-1.9 2.6-2.8 3.9-.8 1.5-2.3 2.9-1 5l2-4 2.1-4.2c.5-1 1.6-2 1.5-3.4-1.6.5-1.2 1.8-1.8 2.6m-41.1-7.5q-.9-.3-1.3.3-.2.6.1 1.2l1.3-.5c.7-.4.2-.8-.1-1M84.8 26.2c-.7-.3-1.9 0-2 1.2a9 9 0 0 0-2.8 4c-1 1-2.3 1.9-2.5 3.3q-.3.3-.3.5-2.1 1.2-1.7 3.2v.5l-1.7 1.6c-1.3 1.4-2.4 3-2.5 4.8-.4.6-2 .3-1.5 1.5-.6 1.6-2.8 2.8-2.3 4.7-1.2 1.7-3.2 3-3.2 5.2q-2 1.4-2 3.5c-.8.6-1.8 1.1-1.8 2.2l-.1.6q-1 .9-.6 2c-1.5 1.3-2.7 2.8-2.5 4.7-.6 1-1.7 1.8-1.4 3.2 1.7-.7 3-1.3 3-3 .7-1.5 2.8-2.7 2.3-4.6l1.6-1.5.5-1.2c.3-.9 1.5-1.4 1.3-2.4q.9-1.2.6-2.4c3.7-.7 2.7-4 4.3-5.7l.8-1.8q1-.8.2-1.7c2.6-.4 1.8-2.3 2.6-3.5 1.5-.3 1.2-1.6 1.8-2.3L77 40l1-2.3 1-1.9c.2-.4 1.7-.2 1-1.1.7-.7 1.4-1.3 1-2.3 1.9-1.2 2.2-3 3.1-4.6 0-.6 1.7-1 .7-1.6M9.2 133.4q.7 0 1-.9l-.2-.6q-.6.3-1 .8-.2.3.2.7m4.3-8.4-.8 1q0 .4.3.7.7.3.8-.4zm85.7-47.5c1.6-.7 1.6-2 1.5-3.1v-.6c.9-1.1 2-2.3 1.1-3.6 0-.2-.7-.3-.9-.2q-1.9 1.7-.9 3.7c-.5.5-1.6.9-.8 1.8-.6.4-2 .4-1.4 1.6l-.1.6c-.7 2.2-3.2 3.5-3.8 5.7l-.8 1.8-.8 1.1a7 7 0 0 0-1.8 5c-.7 1.3-2.5 2.4-2.3 4.4 2.3-1.3 2-3.6 3.8-4.7-.6-1.3 1.7-1.7 1.6-2.9 1.3-1 2.4-2 2-3.6q0-.6.4-1.2l2.2-4z"/></svg>
